svgs/logout-door.svg

<!-- Generated by IcoMoon.io -->
<svg version="1.1" xmlns="http://www.w3.org/2000/svg" width="1375" height="1500" viewBox="0 0 1375 1500">
<title>logout-door</title>
<path d="M1113.751 538.313c-27.62-27.145-27.754-71.29-0.299-98.597s72.1-27.441 99.721-0.294l141.025 138.606c27.62 27.146 27.753 71.29 0.297 98.599l-141.025 140.271c-27.456 27.308-72.101 27.439-99.721 0.293s-27.751-71.29-0.296-98.597l21.366-21.398h-359.389c-38.827 0-70.302-30.946-70.302-69.719 0-38.505 31.537-69.719 70.302-69.719h358.1l-19.78-19.441zM564.103 1254.948v154.345c0 73.62-73.657 114.658-137.348 75.716l-363.577-222.294c-37.169-22.726-63.177-69.050-63.177-112.096v-1046.292c0-22.292 6.754-41.597 17.938-56.599 0.955-2.464 2.294-4.856 4.109-7.17 19.367-24.691 49.709-40.559 83.747-40.559h775.592c58.292 0 105.794 46.85 105.794 104.328v174.549c0 38.505-31.57 69.719-70.513 69.719s-70.513-31.214-70.513-69.719v-139.438l-528.038-0.305 182.81 111.772c37.169 22.726 63.177 69.050 63.177 112.096v752.508h282.051v-139.438c0-38.505 31.57-69.719 70.513-69.719s70.513 31.214 70.513 69.719v174.549c0 57.744-47.471 104.328-105.794 104.328h-317.284zM423.432 369.426l-282.406-173.451v953.776l282.406 170.011v-950.336z"></path>
</svg>

<svg xmlns="http://www.w3.org/2000/svg" width="1375" height="1500" viewBox="0 0 1375 1500"><path d="M1113.751 538.313c-27.62-27.145-27.754-71.29-.299-98.597s72.1-27.441 99.721-.294l141.025 138.606c27.62 27.146 27.753 71.29.297 98.599L1213.47 816.898c-27.456 27.308-72.101 27.439-99.721.293s-27.751-71.29-.296-98.597l21.366-21.398H775.43c-38.827 0-70.302-30.946-70.302-69.719 0-38.505 31.537-69.719 70.302-69.719h358.1l-19.78-19.441zm-549.648 716.635v154.345c0 73.62-73.657 114.658-137.348 75.716L63.178 1262.715C26.009 1239.989.001 1193.665.001 1150.619V104.327c0-22.292 6.754-41.597 17.938-56.599.955-2.464 2.294-4.856 4.109-7.17C41.415 15.867 71.757-.001 105.795-.001h775.592c58.292 0 105.794 46.85 105.794 104.328v174.549c0 38.505-31.57 69.719-70.513 69.719s-70.513-31.214-70.513-69.719V139.438l-528.038-.305 182.81 111.772c37.169 22.726 63.177 69.05 63.177 112.096v752.508h282.051V976.071c0-38.505 31.57-69.719 70.513-69.719s70.513 31.214 70.513 69.719v174.549c0 57.744-47.471 104.328-105.794 104.328H564.103zM423.432 369.426L141.026 195.975v953.776l282.406 170.011V369.426z"/></svg>
